source/img/Logo_html.svg

<svg width="163" height="34" viewBox="0 0 163 34" fill="none" xmlns="http://www.w3.org/2000/svg">
<path d="M8.75 14.5156V15.7422H2.59375V14.5156H8.75ZM2.82812 9.625V21H1.32031V9.625H2.82812ZM10.0625 9.625V21H8.5625V9.625H10.0625ZM16.7109 9.625V21H15.2266V9.625H16.7109ZM20.3672 9.625V10.8594H11.5781V9.625H20.3672ZM22.5312 9.625H23.9922L27.7188 18.8984L31.4375 9.625H32.9062L28.2812 21H27.1406L22.5312 9.625ZM22.0547 9.625H23.3438L23.5547 16.5625V21H22.0547V9.625ZM32.0859 9.625H33.375V21H31.875V16.5625L32.0859 9.625ZM42.9219 19.7734V21H37.2344V19.7734H42.9219ZM37.5312 9.625V21H36.0234V9.625H37.5312ZM52.8281 10.6328L49.0625 21H47.5234L51.8594 9.625H52.8516L52.8281 10.6328ZM55.9844 21L52.2109 10.6328L52.1875 9.625H53.1797L57.5312 21H55.9844ZM55.7891 16.7891V18.0234H49.3984V16.7891H55.7891ZM62.2188 19.9688C62.5625 19.9688 62.8802 19.8984 63.1719 19.7578C63.4635 19.6172 63.7031 19.4245 63.8906 19.1797C64.0781 18.9297 64.1849 18.6458 64.2109 18.3281H65.5859C65.5599 18.8281 65.3906 19.2943 65.0781 19.7266C64.7708 20.1536 64.3672 20.5 63.8672 20.7656C63.3672 21.026 62.8177 21.1562 62.2188 21.1562C61.5833 21.1562 61.0286 21.0443 60.5547 20.8203C60.0859 20.5964 59.6953 20.2891 59.3828 19.8984C59.0755 19.5078 58.8438 19.0599 58.6875 18.5547C58.5365 18.0443 58.4609 17.5052 58.4609 16.9375V16.6094C58.4609 16.0417 58.5365 15.5052 58.6875 15C58.8438 14.4896 59.0755 14.0391 59.3828 13.6484C59.6953 13.2578 60.0859 12.9505 60.5547 12.7266C61.0286 12.5026 61.5833 12.3906 62.2188 12.3906C62.8802 12.3906 63.4583 12.526 63.9531 12.7969C64.4479 13.0625 64.8359 13.4271 65.1172 13.8906C65.4036 14.349 65.5599 14.8698 65.5859 15.4531H64.2109C64.1849 15.1042 64.0859 14.7891 63.9141 14.5078C63.7474 14.2266 63.5182 14.0026 63.2266 13.8359C62.9401 13.6641 62.6042 13.5781 62.2188 13.5781C61.776 13.5781 61.4036 13.6667 61.1016 13.8438C60.8047 14.0156 60.5677 14.25 60.3906 14.5469C60.2188 14.8385 60.0938 15.1641 60.0156 15.5234C59.9427 15.8776 59.9062 16.2396 59.9062 16.6094V16.9375C59.9062 17.3073 59.9427 17.6719 60.0156 18.0312C60.0885 18.3906 60.2109 18.7161 60.3828 19.0078C60.5599 19.2995 60.7969 19.5339 61.0938 19.7109C61.3958 19.8828 61.7708 19.9688 62.2188 19.9688ZM72.1953 19.5547V15.2031C72.1953 14.8698 72.1276 14.5807 71.9922 14.3359C71.862 14.0859 71.6641 13.8932 71.3984 13.7578C71.1328 13.6224 70.8047 13.5547 70.4141 13.5547C70.0495 13.5547 69.7292 13.6172 69.4531 13.7422C69.1823 13.8672 68.9688 14.0312 68.8125 14.2344C68.6615 14.4375 68.5859 14.6562 68.5859 14.8906H67.1406C67.1406 14.5885 67.2188 14.2891 67.375 13.9922C67.5312 13.6953 67.7552 13.4271 68.0469 13.1875C68.3438 12.9427 68.6979 12.75 69.1094 12.6094C69.526 12.4635 69.9896 12.3906 70.5 12.3906C71.1146 12.3906 71.6562 12.4948 72.125 12.7031C72.599 12.9115 72.9688 13.2266 73.2344 13.6484C73.5052 14.0651 73.6406 14.5885 73.6406 15.2188V19.1562C73.6406 19.4375 73.6641 19.737 73.7109 20.0547C73.763 20.3724 73.8385 20.6458 73.9375 20.875V21H72.4297C72.3568 20.8333 72.2995 20.612 72.2578 20.3359C72.2161 20.0547 72.1953 19.7943 72.1953 19.5547ZM72.4453 15.875L72.4609 16.8906H71C70.5885 16.8906 70.2214 16.9245 69.8984 16.9922C69.5755 17.0547 69.3047 17.151 69.0859 17.2812C68.8672 17.4115 68.7005 17.5755 68.5859 17.7734C68.4714 17.9661 68.4141 18.1927 68.4141 18.4531C68.4141 18.7188 68.474 18.9609 68.5938 19.1797C68.7135 19.3984 68.8932 19.5729 69.1328 19.7031C69.3776 19.8281 69.6771 19.8906 70.0312 19.8906C70.474 19.8906 70.8646 19.7969 71.2031 19.6094C71.5417 19.4219 71.8099 19.1927 72.0078 18.9219C72.2109 18.651 72.3203 18.388 72.3359 18.1328L72.9531 18.8281C72.9167 19.0469 72.8177 19.2891 72.6562 19.5547C72.4948 19.8203 72.2786 20.0755 72.0078 20.3203C71.7422 20.5599 71.4245 20.7604 71.0547 20.9219C70.6901 21.0781 70.2786 21.1562 69.8203 21.1562C69.2474 21.1562 68.7448 21.0443 68.3125 20.8203C67.8854 20.5964 67.5521 20.2969 67.3125 19.9219C67.0781 19.5417 66.9609 19.1172 66.9609 18.6484C66.9609 18.1953 67.0495 17.7969 67.2266 17.4531C67.4036 17.1042 67.6589 16.8151 67.9922 16.5859C68.3255 16.3516 68.7266 16.1745 69.1953 16.0547C69.6641 15.9349 70.1875 15.875 70.7656 15.875H72.4453ZM81.2422 19.3594V9H82.6953V21H81.3672L81.2422 19.3594ZM75.5547 16.8672V16.7031C75.5547 16.0573 75.6328 15.4714 75.7891 14.9453C75.9505 14.4141 76.1771 13.9583 76.4688 13.5781C76.7656 13.1979 77.1172 12.9062 77.5234 12.7031C77.9349 12.4948 78.3932 12.3906 78.8984 12.3906C79.4297 12.3906 79.8932 12.4844 80.2891 12.6719C80.6901 12.8542 81.0286 13.1224 81.3047 13.4766C81.5859 13.8255 81.8073 14.2474 81.9688 14.7422C82.1302 15.237 82.2422 15.7969 82.3047 16.4219V17.1406C82.2474 17.7604 82.1354 18.3177 81.9688 18.8125C81.8073 19.3073 81.5859 19.7292 81.3047 20.0781C81.0286 20.4271 80.6901 20.6953 80.2891 20.8828C79.888 21.0651 79.4193 21.1562 78.8828 21.1562C78.388 21.1562 77.9349 21.0495 77.5234 20.8359C77.1172 20.6224 76.7656 20.3229 76.4688 19.9375C76.1771 19.5521 75.9505 19.099 75.7891 18.5781C75.6328 18.0521 75.5547 17.4818 75.5547 16.8672ZM77.0078 16.7031V16.8672C77.0078 17.2891 77.0495 17.6849 77.1328 18.0547C77.2214 18.4245 77.3568 18.75 77.5391 19.0312C77.7214 19.3125 77.9531 19.5339 78.2344 19.6953C78.5156 19.8516 78.8516 19.9297 79.2422 19.9297C79.7214 19.9297 80.1146 19.8281 80.4219 19.625C80.7344 19.4219 80.9844 19.1536 81.1719 18.8203C81.3594 18.487 81.5052 18.125 81.6094 17.7344V15.8516C81.5469 15.5651 81.4557 15.2891 81.3359 15.0234C81.2214 14.7526 81.0703 14.513 80.8828 14.3047C80.7005 14.0911 80.474 13.9219 80.2031 13.7969C79.9375 13.6719 79.6224 13.6094 79.2578 13.6094C78.862 13.6094 78.5208 13.6927 78.2344 13.8594C77.9531 14.0208 77.7214 14.2448 77.5391 14.5312C77.3568 14.8125 77.2214 15.1406 77.1328 15.5156C77.0495 15.8854 77.0078 16.2812 77.0078 16.7031ZM88.4531 21.1562C87.8646 21.1562 87.3307 21.0573 86.8516 20.8594C86.3776 20.6562 85.9688 20.3724 85.625 20.0078C85.2865 19.6432 85.026 19.2109 84.8438 18.7109C84.6615 18.2109 84.5703 17.6641 84.5703 17.0703V16.7422C84.5703 16.0547 84.6719 15.4427 84.875 14.9062C85.0781 14.3646 85.3542 13.9062 85.7031 13.5312C86.0521 13.1562 86.4479 12.8724 86.8906 12.6797C87.3333 12.487 87.7917 12.3906 88.2656 12.3906C88.8698 12.3906 89.3906 12.4948 89.8281 12.7031C90.2708 12.9115 90.6328 13.2031 90.9141 13.5781C91.1953 13.9479 91.4036 14.3854 91.5391 14.8906C91.6745 15.3906 91.7422 15.9375 91.7422 16.5312V17.1797H85.4297V16H90.2969V15.8906C90.276 15.5156 90.1979 15.151 90.0625 14.7969C89.9323 14.4427 89.724 14.151 89.4375 13.9219C89.151 13.6927 88.7604 13.5781 88.2656 13.5781C87.9375 13.5781 87.6354 13.6484 87.3594 13.7891C87.0833 13.9245 86.8464 14.1276 86.6484 14.3984C86.4505 14.6693 86.2969 15 86.1875 15.3906C86.0781 15.7812 86.0234 16.2318 86.0234 16.7422V17.0703C86.0234 17.4714 86.0781 17.849 86.1875 18.2031C86.3021 18.5521 86.4661 18.8594 86.6797 19.125C86.8984 19.3906 87.1615 19.599 87.4688 19.75C87.7812 19.901 88.1354 19.9766 88.5312 19.9766C89.0417 19.9766 89.474 19.8724 89.8281 19.6641C90.1823 19.4557 90.4922 19.1771 90.7578 18.8281L91.6328 19.5234C91.4505 19.7995 91.2188 20.0625 90.9375 20.3125C90.6562 20.5625 90.3099 20.7656 89.8984 20.9219C89.4922 21.0781 89.0104 21.1562 88.4531 21.1562ZM94.8672 14.2266V21H93.4141V12.5469H94.7891L94.8672 14.2266ZM94.5703 16.4531L93.8984 16.4297C93.9036 15.8516 93.9792 15.3177 94.125 14.8281C94.2708 14.3333 94.487 13.9036 94.7734 13.5391C95.0599 13.1745 95.4167 12.8932 95.8438 12.6953C96.2708 12.4922 96.7656 12.3906 97.3281 12.3906C97.724 12.3906 98.0885 12.4479 98.4219 12.5625C98.7552 12.6719 99.0443 12.8464 99.2891 13.0859C99.5339 13.3255 99.724 13.6328 99.8594 14.0078C99.9948 14.3828 100.062 14.8359 100.062 15.3672V21H98.6172V15.4375C98.6172 14.9948 98.5417 14.6406 98.3906 14.375C98.2448 14.1094 98.0365 13.9167 97.7656 13.7969C97.4948 13.6719 97.1771 13.6094 96.8125 13.6094C96.3854 13.6094 96.0286 13.6849 95.7422 13.8359C95.4557 13.987 95.2266 14.1953 95.0547 14.4609C94.8828 14.7266 94.7578 15.0312 94.6797 15.375C94.6068 15.7135 94.5703 16.0729 94.5703 16.4531ZM100.047 15.6562L99.0781 15.9531C99.0833 15.4896 99.1589 15.0443 99.3047 14.6172C99.4557 14.1901 99.6719 13.8099 99.9531 13.4766C100.24 13.1432 100.591 12.8802 101.008 12.6875C101.424 12.4896 101.901 12.3906 102.438 12.3906C102.891 12.3906 103.292 12.4505 103.641 12.5703C103.995 12.6901 104.292 12.875 104.531 13.125C104.776 13.3698 104.961 13.6849 105.086 14.0703C105.211 14.4557 105.273 14.9141 105.273 15.4453V21H103.82V15.4297C103.82 14.9557 103.745 14.5885 103.594 14.3281C103.448 14.0625 103.24 13.8776 102.969 13.7734C102.703 13.6641 102.385 13.6094 102.016 13.6094C101.698 13.6094 101.417 13.6641 101.172 13.7734C100.927 13.8828 100.721 14.0339 100.555 14.2266C100.388 14.4141 100.26 14.6302 100.172 14.875C100.089 15.1198 100.047 15.3802 100.047 15.6562ZM109.836 20.125L112.188 12.5469H113.734L110.344 22.3047C110.266 22.513 110.161 22.737 110.031 22.9766C109.906 23.2214 109.745 23.4531 109.547 23.6719C109.349 23.8906 109.109 24.0677 108.828 24.2031C108.552 24.3438 108.221 24.4141 107.836 24.4141C107.721 24.4141 107.576 24.3984 107.398 24.3672C107.221 24.3359 107.096 24.3099 107.023 24.2891L107.016 23.1172C107.057 23.1224 107.122 23.1276 107.211 23.1328C107.305 23.1432 107.37 23.1484 107.406 23.1484C107.734 23.1484 108.013 23.1042 108.242 23.0156C108.471 22.9323 108.664 22.7891 108.82 22.5859C108.982 22.388 109.12 22.1146 109.234 21.7656L109.836 20.125ZM108.109 12.5469L110.305 19.1094L110.68 20.6328L109.641 21.1641L106.531 12.5469H108.109Z" fill="#444444"/>
<path d="M149.643 0.0157537L149.5 0L136 1.40733V26.0129L149.5 34L163 26.0129V1.40733L149.643 0.0157537ZM161.234 25.0151L149.5 31.9573L137.766 25.0151V14.9293L149.451 21.8451L149.47 23.0984L141.454 18.3548L141.443 19.5801L149.489 24.3885L149.509 25.675L141.464 20.9174L141.454 22.1427L149.5 26.9511L157.624 22.1182V20.8929V16.909L161.243 14.7595L161.234 25.0151ZM161.234 13.4519L158.015 15.3319L156.533 16.2071L149.467 12.0201L149.456 13.2454L155.496 16.818L155.443 16.8495L155.313 16.9247L154.454 17.4166L149.467 14.4689L149.456 15.6942L153.392 18.0222L152.459 18.6314L152.438 18.6436L149.467 16.902L149.456 18.1273L151.403 19.2615L149.416 20.4483L137.797 13.5762L149.435 6.61831L161.234 13.4519ZM161.234 12.2266L149.44 5.31075L137.766 12.2196V2.9897L149.5 1.76442L161.234 2.9897V12.2266Z" fill="#666666"/>
</svg>

<svg width="163" height="34" fill="none" xmlns="http://www.w3.org/2000/svg"><path d="M8.75 14.516v1.226H2.594v-1.226H8.75ZM2.828 9.625V21H1.32V9.625h1.508Zm7.235 0V21h-1.5V9.625h1.5Zm6.648 0V21h-1.484V9.625h1.484Zm3.656 0v1.234h-8.789V9.625h8.79Zm2.164 0h1.461l3.727 9.273 3.718-9.273h1.47L28.28 21h-1.14L22.53 9.625Zm-.476 0h1.289l.21 6.938V21h-1.5V9.625Zm10.03 0h1.29V21h-1.5v-4.438l.21-6.937Zm10.837 10.148V21h-5.688v-1.227h5.688Zm-5.39-10.148V21h-1.509V9.625h1.508Zm15.296 1.008L49.062 21h-1.539L51.86 9.625h.993l-.024 1.008ZM55.984 21l-3.773-10.367-.023-1.008h.992L57.53 21h-1.547Zm-.195-4.21v1.233H49.4V16.79h6.39Zm6.43 3.179c.343 0 .661-.07.953-.211.292-.14.531-.334.719-.578a1.61 1.61 0 0 0 .32-.852h1.375c-.026.5-.195.966-.508 1.399-.307.427-.71.773-1.21 1.039-.5.26-1.05.39-1.65.39-.635 0-1.19-.112-1.663-.336a3.297 3.297 0 0 1-1.172-.922 4.119 4.119 0 0 1-.696-1.343 5.672 5.672 0 0 1-.226-1.617v-.329c0-.567.075-1.104.227-1.609.156-.51.387-.96.695-1.352.312-.39.703-.697 1.172-.921.474-.224 1.028-.336 1.664-.336.661 0 1.24.135 1.734.406.495.265.883.63 1.164 1.094.287.458.443.979.469 1.562H64.21a2.083 2.083 0 0 0-.297-.945 1.852 1.852 0 0 0-.687-.672 1.922 1.922 0 0 0-1.008-.258c-.443 0-.815.089-1.117.266a1.957 1.957 0 0 0-.711.703 3.286 3.286 0 0 0-.375.976c-.073.355-.11.717-.11 1.086v.328c0 .37.037.735.11 1.094.073.36.195.685.367.977.177.291.414.526.71.703.303.172.678.258 1.126.258Zm9.976-.414v-4.352c0-.333-.067-.622-.203-.867a1.329 1.329 0 0 0-.594-.578c-.265-.136-.593-.203-.984-.203a2.31 2.31 0 0 0-.96.187c-.272.125-.485.29-.641.492a1.079 1.079 0 0 0-.227.657H67.14c0-.303.078-.602.234-.899.156-.297.38-.565.672-.805a3.358 3.358 0 0 1 1.062-.578c.417-.146.88-.218 1.391-.218.615 0 1.156.104 1.625.312.474.209.844.524 1.11.945.27.417.406.94.406 1.57v3.938c0 .282.023.581.07.899.052.317.127.59.227.82V21H72.43a2.702 2.702 0 0 1-.172-.664 5.35 5.35 0 0 1-.063-.781Zm.25-3.68.016 1.016H71c-.412 0-.779.034-1.102.101a2.52 2.52 0 0 0-.812.29c-.219.13-.385.294-.5.491-.115.193-.172.42-.172.68 0 .266.06.508.18.727.12.218.3.393.539.523.245.125.544.188.898.188.443 0 .834-.094 1.172-.282.339-.187.607-.416.805-.687.203-.271.312-.534.328-.79l.617.696c-.036.219-.135.461-.297.727a3.5 3.5 0 0 1-1.602 1.367 3.106 3.106 0 0 1-1.234.234c-.573 0-1.075-.112-1.507-.336a2.578 2.578 0 0 1-1-.898 2.378 2.378 0 0 1-.352-1.274c0-.453.088-.851.266-1.195.177-.349.432-.638.765-.867a3.64 3.64 0 0 1 1.203-.531c.47-.12.993-.18 1.57-.18h1.68Zm8.797 3.484V9h1.453v12h-1.328l-.125-1.64Zm-5.687-2.492v-.164c0-.646.078-1.232.234-1.758.162-.53.388-.987.68-1.367.297-.38.648-.672 1.054-.875a3 3 0 0 1 1.375-.312c.532 0 .995.093 1.391.28.401.183.74.451 1.016.806.28.348.502.77.664 1.265.161.495.273 1.055.336 1.68v.719a7.366 7.366 0 0 1-.336 1.672 3.945 3.945 0 0 1-.664 1.265 2.78 2.78 0 0 1-1.016.805c-.401.182-.87.273-1.406.273-.495 0-.948-.107-1.36-.32a3.207 3.207 0 0 1-1.054-.898 4.376 4.376 0 0 1-.68-1.36 5.983 5.983 0 0 1-.234-1.71Zm1.453-.164v.164c0 .422.041.818.125 1.188.088.37.224.695.406.976.182.282.414.503.695.664.282.157.618.235 1.008.235.48 0 .873-.102 1.18-.305.312-.203.562-.471.75-.805.187-.333.333-.695.437-1.086v-1.882a4.173 4.173 0 0 0-.273-.829 2.548 2.548 0 0 0-.453-.718 1.958 1.958 0 0 0-.68-.508 2.202 2.202 0 0 0-.945-.188c-.396 0-.737.084-1.024.25a1.993 1.993 0 0 0-.695.672c-.182.281-.318.61-.406.985-.084.37-.125.765-.125 1.187Zm11.445 4.453a4.158 4.158 0 0 1-1.601-.297 3.632 3.632 0 0 1-1.227-.851 3.787 3.787 0 0 1-.781-1.297 4.756 4.756 0 0 1-.274-1.64v-.329c0-.687.102-1.3.305-1.836.203-.541.48-1 .828-1.375a3.548 3.548 0 0 1 1.188-.851c.442-.193.9-.29 1.375-.29.604 0 1.125.105 1.562.313.443.209.805.5 1.086.875.281.37.49.807.625 1.313.135.5.203 1.046.203 1.64v.649H85.43V16h4.867v-.11a3.607 3.607 0 0 0-.234-1.093 1.965 1.965 0 0 0-.626-.875c-.286-.23-.677-.344-1.171-.344a1.966 1.966 0 0 0-1.618.82 3.07 3.07 0 0 0-.46.993c-.11.39-.165.84-.165 1.351v.328c0 .401.055.779.165 1.133.114.35.278.656.492.922.218.266.481.474.789.625.312.151.666.227 1.062.227.51 0 .943-.105 1.297-.313.354-.208.664-.487.93-.836l.875.695c-.182.276-.414.54-.695.79a3.32 3.32 0 0 1-1.04.609c-.406.156-.888.234-1.445.234Zm6.414-6.93V21h-1.453v-8.453h1.375l.078 1.68Zm-.297 2.227-.672-.023c.006-.578.081-1.112.227-1.602a3.8 3.8 0 0 1 .648-1.289 2.882 2.882 0 0 1 1.07-.844c.428-.203.923-.304 1.485-.304.396 0 .76.057 1.094.171.333.11.622.284.867.524.245.24.435.547.57.922.136.375.203.828.203 1.36V21h-1.445v-5.563c0-.442-.075-.796-.226-1.062a1.294 1.294 0 0 0-.625-.578 2.255 2.255 0 0 0-.954-.188c-.427 0-.783.076-1.07.227-.286.151-.515.36-.687.625-.172.266-.297.57-.375.914-.073.338-.11.698-.11 1.078Zm5.477-.797-.969.297c.005-.463.08-.909.227-1.336.15-.427.367-.807.648-1.14a3.07 3.07 0 0 1 1.055-.79c.416-.197.893-.296 1.43-.296a3.7 3.7 0 0 1 1.203.18c.354.12.651.304.89.554.245.245.43.56.555.945.125.386.187.844.187 1.375V21h-1.453v-5.57c0-.474-.075-.841-.226-1.102a1.18 1.18 0 0 0-.625-.555 2.503 2.503 0 0 0-.953-.164c-.318 0-.599.055-.844.164-.245.11-.451.26-.617.454a1.964 1.964 0 0 0-.383.648 2.417 2.417 0 0 0-.125.781Zm9.789 4.469 2.352-7.578h1.546l-3.39 9.758a5.392 5.392 0 0 1-.313.672 3.213 3.213 0 0 1-.484.695 2.311 2.311 0 0 1-.719.531c-.276.14-.607.211-.992.211-.115 0-.26-.016-.438-.047a4.293 4.293 0 0 1-.375-.078l-.007-1.172c.041.005.106.01.195.016a2.325 2.325 0 0 0 1.031-.117c.229-.084.422-.227.578-.43.162-.198.3-.471.414-.82l.602-1.641Zm-1.727-7.578 2.196 6.562.375 1.524-1.039.531-3.11-8.617h1.578Z" fill="#444"/><path d="M149.643.016 149.5 0 136 1.407v24.606L149.5 34l13.5-7.987V1.407L149.643.016Zm11.591 25L149.5 31.956l-11.734-6.942V14.93l11.685 6.916.019 1.253-8.016-4.743-.011 1.225 8.046 4.809.02 1.286-8.045-4.758-.01 1.226 8.046 4.808 8.124-4.833V16.91l3.619-2.15-.009 10.256Zm0-11.564-3.219 1.88-1.482.875-7.066-4.187-.011 1.225 6.04 3.573-.053.031-.13.076-.859.492-4.987-2.948-.011 1.225 3.936 2.328-.933.61-.021.012-2.971-1.742-.011 1.225 1.947 1.135-1.987 1.186-11.619-6.872 11.638-6.958 11.799 6.834Zm0-1.225L149.44 5.31l-11.674 6.909V2.99L149.5 1.764l11.734 1.226v9.237Z" fill="#666"/></svg>
